build/images/last-section/Vectorls-icon-2.svg

<svg width="69" height="79" viewBox="0 0 69 79" fill="none" xmlns="http://www.w3.org/2000/svg">
<path d="M2.59143 23.7277L3.43693 24.9668L3.44536 24.9609L2.59143 23.7277ZM33.621 2.24134L34.4749 3.47455L34.479 3.47171L33.621 2.24134ZM35.1541 2.24134L34.2961 3.47174L34.304 3.4772L35.1541 2.24134ZM66.3996 23.7332L65.5495 24.969L65.5496 24.9691L66.3996 23.7332ZM66.9922 24.865H68.4922H66.9922ZM66.3996 25.9969L65.5496 24.761L65.5449 24.7642L66.3996 25.9969ZM35.2621 47.5869L36.1163 48.82L36.1168 48.8196L35.2621 47.5869ZM34.4928 47.8278V46.3278V47.8278ZM33.7235 47.5869L32.869 48.8197L32.8693 48.82L33.7235 47.5869ZM2.58603 26.0024L3.44059 24.7696L3.43746 24.7674L2.58603 26.0024ZM66.3996 38.1556L67.2524 36.9217L67.2499 36.9199L66.3996 38.1556ZM66.992 39.2902H68.492H66.992ZM66.3996 40.4248L65.5467 39.1908L65.5451 39.192L66.3996 40.4248ZM35.2675 62.0039L36.1217 63.2369L36.122 63.2367L35.2675 62.0039ZM34.4982 62.2448V60.7448V62.2448ZM33.7289 62.0039L32.8742 63.2366L32.8747 63.2369L33.7289 62.0039ZM2.58602 40.4085L1.72885 41.6394L1.73127 41.6411L2.58602 40.4085ZM1.99756 39.2766H3.49756H1.99756ZM2.58602 38.1447L1.73187 36.9117L1.72885 36.9138L2.58602 38.1447ZM66.3996 52.8999L67.2524 51.6659L67.2497 51.6641L66.3996 52.8999ZM66.3996 55.1691L65.5467 53.9351L65.5449 53.9364L66.3996 55.1691ZM35.2621 76.7591L36.1163 77.9921L36.1168 77.9918L35.2621 76.7591ZM34.4928 77V75.5V77ZM33.7235 76.7591L32.8688 77.9918L32.8693 77.9921L33.7235 76.7591ZM2.58062 55.1636L1.72345 56.3946L1.72587 56.3963L2.58062 55.1636ZM1.99219 54.0318H0.492188H1.99219ZM2.58062 52.8999L1.72671 51.6667L1.72345 51.6689L2.58062 52.8999ZM25.5162 15.708C26.1813 15.2142 26.3202 14.2746 25.8263 13.6095C25.3325 12.9444 24.3929 12.8055 23.7278 13.2994L25.5162 15.708ZM9.70292 23.7125C9.03779 24.2064 8.89893 25.1459 9.39278 25.8111C9.88663 26.4762 10.8262 26.615 11.4913 26.1212L9.70292 23.7125ZM13.6755 26.9834C13.0062 27.4716 12.8594 28.41 13.3477 29.0792C13.8359 29.7485 14.7743 29.8952 15.4435 29.407L13.6755 26.9834ZM23.676 23.4013C24.3452 22.913 24.492 21.9747 24.0037 21.3054C23.5155 20.6362 22.5772 20.4894 21.9079 20.9777L23.676 23.4013ZM3.44536 24.9609L34.4749 3.47454L32.767 1.00813L1.7375 22.4945L3.44536 24.9609ZM34.479 3.47171C34.4536 3.48942 34.4217 3.5 34.3875 3.5V0.5C33.8057 0.5 33.2391 0.67892 32.763 1.01096L34.479 3.47171ZM34.3875 3.5C34.3534 3.5 34.3215 3.48942 34.2961 3.47171L36.0121 1.01096C35.5359 0.67892 34.9693 0.5 34.3875 0.5V3.5ZM34.304 3.4772L65.5495 24.969L67.2496 22.4973L36.0042 1.00547L34.304 3.4772ZM65.5496 24.9691C65.5299 24.9556 65.5154 24.9385 65.506 24.9205L68.1638 23.529C67.9478 23.1165 67.6344 22.7619 67.2496 22.4972L65.5496 24.9691ZM65.506 24.9205C65.4967 24.9027 65.4922 24.8837 65.4922 24.865H68.4922C68.4922 24.4 68.3797 23.9414 68.1638 23.529L65.506 24.9205ZM65.4922 24.865C65.4922 24.8464 65.4967 24.8274 65.506 24.8095L68.1638 26.201C68.3797 25.7887 68.4922 25.3301 68.4922 24.865H65.4922ZM65.506 24.8095C65.5154 24.7916 65.5299 24.7745 65.5496 24.761L67.2496 27.2328C67.6344 26.9682 67.9478 26.6136 68.1638 26.201L65.506 24.8095ZM65.5449 24.7642L34.4073 46.3543L36.1168 48.8196L67.2543 27.2296L65.5449 24.7642ZM34.4078 46.3539C34.4314 46.3376 34.461 46.3278 34.4928 46.3278V49.3278C35.0738 49.3278 35.6398 49.1501 36.1163 48.82L34.4078 46.3539ZM34.4928 46.3278C34.5246 46.3278 34.5542 46.3376 34.5778 46.3539L32.8693 48.82C33.3458 49.1501 33.9118 49.3278 34.4928 49.3278V46.3278ZM34.5781 46.3542L3.44059 24.7696L1.73147 27.2351L32.869 48.8197L34.5781 46.3542ZM3.43746 24.7674C3.4564 24.7805 3.4703 24.7969 3.47928 24.8141L0.819041 26.2009C1.03498 26.6151 1.34884 26.9713 1.73459 27.2373L3.43746 24.7674ZM3.47928 24.8141C3.48821 24.8313 3.49243 24.8494 3.49238 24.8672L0.492393 24.86C0.491286 25.3265 0.603149 25.7868 0.819041 26.2009L3.47928 24.8141ZM3.49238 24.8672C3.49234 24.8848 3.48807 24.9029 3.47899 24.9202L0.825394 23.5207C0.607474 23.9339 0.4935 24.3937 0.492393 24.86L3.49238 24.8672ZM3.47899 24.9202C3.46986 24.9375 3.45586 24.9538 3.43691 24.9667L1.74595 22.4887C1.359 22.7528 1.04335 23.1074 0.825394 23.5207L3.47899 24.9202ZM56.75 33.3365L65.5493 39.3913L67.2499 36.9199L58.4506 30.8651L56.75 33.3365ZM65.5467 39.3896C65.528 39.3766 65.5141 39.3603 65.5051 39.343L68.1645 37.9546C67.949 37.5419 67.6364 37.187 67.2524 36.9217L65.5467 39.3896ZM65.5051 39.343C65.4962 39.3259 65.492 39.3078 65.492 39.2902H68.492C68.492 38.8255 68.3799 38.3671 68.1645 37.9546L65.5051 39.343ZM65.492 39.2902C65.492 39.2726 65.4962 39.2545 65.5051 39.2374L68.1645 40.6259C68.3799 40.2133 68.492 39.7549 68.492 39.2902H65.492ZM65.5051 39.2374C65.5141 39.2202 65.528 39.2038 65.5467 39.1908L67.2524 41.6588C67.6364 41.3934 67.949 41.0385 68.1645 40.6259L65.5051 39.2374ZM65.5451 39.192L34.4129 60.7711L36.122 63.2367L67.2541 41.6576L65.5451 39.192ZM34.4132 60.7709C34.4368 60.7546 34.4664 60.7448 34.4982 60.7448V63.7448C35.0792 63.7448 35.6452 63.5671 36.1217 63.2369L34.4132 60.7709ZM34.4982 60.7448C34.53 60.7448 34.5596 60.7546 34.5832 60.7709L32.8747 63.2369C33.3512 63.5671 33.9172 63.7448 34.4982 63.7448V60.7448ZM34.5837 60.7713L3.44077 39.1758L1.73127 41.6411L32.8742 63.2366L34.5837 60.7713ZM3.44319 39.1775C3.46188 39.1905 3.47562 39.2068 3.48452 39.2239L0.822748 40.6078C1.03666 41.0192 1.34718 41.3736 1.72885 41.6394L3.44319 39.1775ZM3.48452 39.2239C3.49335 39.2409 3.49756 39.2589 3.49756 39.2766H0.497558C0.497558 39.7397 0.608915 40.1964 0.822748 40.6078L3.48452 39.2239ZM3.49756 39.2766C3.49756 39.2942 3.49335 39.3122 3.48452 39.3292L0.822748 37.9454C0.608911 38.3567 0.497558 38.8135 0.497558 39.2766H3.49756ZM3.48452 39.3292C3.47562 39.3464 3.46188 39.3627 3.44319 39.3757L1.72885 36.9138C1.34718 37.1795 1.03666 37.5339 0.822748 37.9454L3.48452 39.3292ZM3.44017 39.3778L12.2124 33.3011L10.5041 30.835L1.73187 36.9117L3.44017 39.3778ZM56.518 47.9227L65.5494 54.1357L67.2497 51.6641L58.2183 45.4511L56.518 47.9227ZM65.5467 54.1339C65.528 54.1209 65.5141 54.1046 65.5051 54.0873L68.1645 52.6989C67.949 52.2862 67.6364 51.9313 67.2524 51.6659L65.5467 54.1339ZM65.5051 54.0873C65.4962 54.0702 65.492 54.0521 65.492 54.0345H68.492C68.492 53.5698 68.3799 53.1114 68.1645 52.6989L65.5051 54.0873ZM65.492 54.0345C65.492 54.0169 65.4962 53.9988 65.5051 53.9817L68.1645 55.3701C68.3799 54.9576 68.492 54.4992 68.492 54.0345H65.492ZM65.5051 53.9817C65.5141 53.9644 65.528 53.9481 65.5467 53.9351L67.2524 56.4031C67.6364 56.1377 67.949 55.7828 68.1645 55.3701L65.5051 53.9817ZM65.5449 53.9364L34.4073 75.5265L36.1168 77.9918L67.2543 56.4018L65.5449 53.9364ZM34.4078 75.5261C34.4314 75.5098 34.461 75.5 34.4928 75.5V78.5C35.0738 78.5 35.6398 78.3223 36.1163 77.9921L34.4078 75.5261ZM34.4928 75.5C34.5246 75.5 34.5542 75.5098 34.5778 75.5261L32.8693 77.9921C33.3458 78.3223 33.9118 78.5 34.4928 78.5V75.5ZM34.5783 75.5265L3.43537 53.931L1.72587 56.3963L32.8688 77.9918L34.5783 75.5265ZM3.43779 53.9327C3.45648 53.9457 3.47021 53.962 3.47912 53.9791L0.817345 55.3629C1.03126 55.7744 1.34178 56.1288 1.72345 56.3946L3.43779 53.9327ZM3.47912 53.9791C3.48802 53.9962 3.49219 54.0143 3.49219 54.0318H0.492188C0.492188 54.4947 0.603438 54.9515 0.817345 55.3629L3.47912 53.9791ZM3.49219 54.0318C3.49219 54.0493 3.48801 54.0673 3.47912 54.0844L0.817345 52.7006C0.603443 53.112 0.492188 53.5688 0.492188 54.0318H3.49219ZM3.47912 54.0844C3.47021 54.1015 3.45648 54.1178 3.43779 54.1309L1.72345 51.6689C1.34178 51.9347 1.03126 52.2891 0.817345 52.7006L3.47912 54.0844ZM3.43453 54.1331L12.4389 47.8983L10.7311 45.4319L1.72671 51.6667L3.43453 54.1331ZM23.7278 13.2994L9.70292 23.7125L11.4913 26.1212L25.5162 15.708L23.7278 13.2994ZM15.4435 29.407L23.676 23.4013L21.9079 20.9777L13.6755 26.9834L15.4435 29.407Z" fill="#2FC9C8"/>
</svg>

<svg width="69" height="79" fill="none" xmlns="http://www.w3.org/2000/svg"><path d="M2.591 23.728l.846 1.239.008-.006-.854-1.233zM33.621 2.24l.854 1.234.004-.003-.858-1.23zm1.533 0l-.858 1.23.008.006.85-1.236zM66.4 23.733l-.85 1.236.85-1.236zm.592 1.132h1.5-1.5zm-.592 1.132l-.85-1.236-.005.003.855 1.233zm-31.138 21.59l.854 1.233-.854-1.233zm-.77.24v-1.5 1.5zm-.768-.24l-.855 1.233.855-1.233zM2.585 26.002l.855-1.232-.004-.003-.851 1.235zM66.4 38.156l.852-1.234-.002-.002-.85 1.236zm.592 1.134h1.5-1.5zm-.592 1.135l-.853-1.234-.002.001.855 1.233zM35.267 62.004l.855 1.233-.855-1.233zm-.769.24v-1.5 1.5zm-.77-.24l-.854 1.233.855-1.233zM2.587 40.408l-.857 1.231.002.002.855-1.233zm-.588-1.131h1.5-1.5zm.588-1.132l-.854-1.233-.003.002.857 1.23zM66.4 52.9l.852-1.234-.002-.002-.85 1.236zm0 2.27l-.853-1.235-.002.001.855 1.233zM35.262 76.76l.854 1.232-.854-1.233zm-.77.24v-1.5V77zm-.768-.24l-.855 1.232.855-1.233zM2.58 55.163l-.858 1.23.003.002.855-1.232zm-.589-1.132h-1.5 1.5zm.589-1.132l-.854-1.233-.004.002.858 1.23zm22.935-37.192a1.5 1.5 0 1 0-1.788-2.409l1.788 2.409zM9.703 23.712a1.5 1.5 0 0 0 1.788 2.41l-1.788-2.41zm3.973 3.271a1.5 1.5 0 1 0 1.768 2.424l-1.769-2.424zm10-3.582a1.5 1.5 0 0 0-1.768-2.423l1.768 2.423zm-20.23 1.56L34.474 3.475l-1.708-2.467-31.03 21.486 1.708 2.467zM34.478 3.47a.16.16 0 0 1-.091.029v-3a2.84 2.84 0 0 0-1.625.511l1.716 2.46zm-.091.029a.16.16 0 0 1-.092-.028l1.716-2.461A2.84 2.84 0 0 0 34.388.5v3zm-.084-.023L65.549 24.97l1.7-2.472L36.005 1.005l-1.7 2.472zM65.55 24.97a.135.135 0 0 1-.044-.049l2.658-1.391a2.865 2.865 0 0 0-.914-1.032l-1.7 2.472zm-.044-.049a.12.12 0 0 1-.014-.055h3a2.88 2.88 0 0 0-.328-1.336l-2.658 1.392zm-.014-.055a.12.12 0 0 1 .014-.055l2.658 1.391a2.88 2.88 0 0 0 .328-1.336h-3zm.014-.055a.135.135 0 0 1 .044-.049l1.7 2.472a2.88 2.88 0 0 0 .914-1.032l-2.658-1.392zm.039-.046l-31.138 21.59 1.71 2.466 31.137-21.59-1.71-2.466zm-31.137 21.59a.15.15 0 0 1 .085-.026v3a2.85 2.85 0 0 0 1.623-.508l-1.708-2.466zm.085-.026a.15.15 0 0 1 .085.026l-1.709 2.466a2.85 2.85 0 0 0 1.624.508v-3zm.085.026L3.441 24.77l-1.71 2.465L32.87 48.82l1.71-2.466zM3.438 24.767a.13.13 0 0 1 .041.047L.82 26.201c.216.414.53.77.916 1.036l1.702-2.47zm.041.047a.114.114 0 0 1 .013.053l-3-.007c0 .466.111.927.327 1.34l2.66-1.386zm.013.053a.114.114 0 0 1-.013.053l-2.654-1.4a2.886 2.886 0 0 0-.333 1.34l3 .007zm-.013.053a.13.13 0 0 1-.042.047l-1.691-2.478a2.87 2.87 0 0 0-.92 1.032l2.653 1.4zm53.271 8.416l8.8 6.055 1.7-2.471-8.8-6.055-1.7 2.472zm8.797 6.054a.13.13 0 0 1-.042-.047l2.66-1.388a2.87 2.87 0 0 0-.913-1.033l-1.705 2.468zm-.042-.047a.114.114 0 0 1-.013-.053h3c0-.465-.112-.923-.328-1.335l-2.659 1.388zm-.013-.053c0-.017.004-.035.013-.053l2.66 1.389c.215-.413.327-.871.327-1.336h-3zm.013-.053a.131.131 0 0 1 .042-.046l1.705 2.468a2.87 2.87 0 0 0 .913-1.033l-2.66-1.389zm.04-.045l-31.132 21.58 1.709 2.465 31.132-21.58-1.709-2.465zM34.413 60.771a.15.15 0 0 1 .085-.026v3a2.85 2.85 0 0 0 1.624-.508l-1.709-2.466zm.085-.026a.15.15 0 0 1 .085.026l-1.708 2.466a2.85 2.85 0 0 0 1.623.508v-3zm.086.026L3.44 39.176 1.73 41.64l31.143 21.596 1.71-2.466zM3.444 39.178a.13.13 0 0 1 .04.046l-2.66 1.384c.214.411.524.766.906 1.031l1.714-2.462zm.04.046a.114.114 0 0 1 .014.053h-3c0 .463.11.92.325 1.33l2.662-1.383zm.014.053a.114.114 0 0 1-.013.052L.823 37.945a2.886 2.886 0 0 0-.325 1.332h3zm-.013.052a.13.13 0 0 1-.042.047L1.73 36.914c-.382.265-.692.62-.906 1.031l2.662 1.384zm-.045.049l8.772-6.077-1.708-2.466-8.772 6.077 1.708 2.466zm53.078 8.545l9.031 6.213 1.7-2.472-9.03-6.213-1.701 2.472zm9.029 6.21a.13.13 0 0 1-.042-.046l2.66-1.388a2.87 2.87 0 0 0-.913-1.033l-1.705 2.468zm-.042-.046a.114.114 0 0 1-.013-.053h3c0-.464-.112-.923-.328-1.335l-2.659 1.388zm-.013-.053c0-.017.004-.035.013-.052l2.66 1.388c.215-.412.327-.87.327-1.335h-3zm.013-.052a.13.13 0 0 1 .042-.047l1.705 2.468a2.87 2.87 0 0 0 .913-1.033l-2.66-1.388zm.04-.046l-31.138 21.59 1.71 2.466 31.137-21.59-1.71-2.466zm-31.137 21.59a.15.15 0 0 1 .085-.026v3a2.85 2.85 0 0 0 1.623-.508l-1.708-2.466zm.085-.026a.15.15 0 0 1 .085.026l-1.709 2.466a2.85 2.85 0 0 0 1.624.508v-3zm.085.026L3.435 53.931l-1.71 2.465L32.87 77.992l1.71-2.466zM3.438 53.933a.13.13 0 0 1 .041.046L.817 55.363c.214.411.525.766.906 1.032l1.715-2.462zm.041.046a.114.114 0 0 1 .013.053h-3c0 .463.111.92.325 1.33L3.48 53.98zm.013.053a.114.114 0 0 1-.013.052L.817 52.701a2.886 2.886 0 0 0-.325 1.33h3zm-.013.052a.131.131 0 0 1-.041.047l-1.715-2.462A2.87 2.87 0 0 0 .817 52.7l2.662 1.383zm-.044.05l9.004-6.236-1.708-2.466-9.004 6.235 1.708 2.466zm20.293-40.835L9.703 23.712l1.788 2.41 14.025-10.414-1.788-2.409zm-8.285 16.108l8.233-6.006-1.768-2.423-8.233 6.005 1.768 2.424z" fill="#2FC9C8"/></svg>
